X:1
T:Nigeria, 10.7.10.7 D
T:Nigeria, 10.7.10.7 D
T:James Holmes Rosecrans, 1897
T:Public Domain Courtesy of the Cyber Hymnal™
C:James Holmes Rosecrans, 1897
Z:Public Domain
Z:Courtesy of the Cyber Hymnal™
%%score ( 1 2 ) ( 3 4 )
L:1/8
Q:1/4=100
M:4/4
K:F
V:1 treble 
V:2 treble 
V:3 bass 
V:4 bass 
V:1
 [Ac]2 [Ac][Ac] [Ac]2 [FA][Ac] | ([Ac][GB])[FA][EG] [FA]4 | [Fd]2 [DB][Fd] [Fc]2 [CF][FA] | %3
 [EG]6 z2 | [Ac]2 [Ac][Ac] [Ac]2 [FA][Ac] | ([Ac][GB])[FA][EG] [FA]4 | %6
 [Fd]2 [DB][Fd] [Fc]2 [CE][CE] | [CF]6 z2 | (FB)[DB][DB] ([DB][Fd])[Fd][Fd] | (dc)[Fc][FA] [Fc]4 | %10
 (cG)[EG][FA] ([GB][FA])[GB][Ec] | [FA]6 z2 | (FB)[DB][DB] ([DB][Fd])[Fd][Fc] | %13
 (dc)[Fc][FA] [Fc]4 | (cG)[EG][FA] [GB]2 [FA][EG] | F6 z2 |] %16
V:2
 x8 | x8 | x8 | x8 | x8 | x8 | x8 | x8 | D2 x6 | F2 x6 | E2 x6 | x8 | D2 x6 | F2 x6 | E2 x6 | %15
 F6 x2 |] %16
V:3
 [F,F]2 [F,F] [F,F]2 [F,F][F,C][F,F] | (FC)[C,C][C,C] [F,C]4 | %2
 [B,,B,]2 [B,,F,][B,,B,] [F,A,]2 [F,A,][F,C] | [C,C]6 z2 | [F,F]2 [F,F] [F,F]2 [F,F][F,C][F,F] | %5
 (FC)[C,C][C,C] [F,C]4 | [B,,B,]2 [B,,F,][B,,B,] [C,A,]2 [C,G,][C,B,] | [F,A,]6 z2 | %8
 (B,F,)[F,,F,][F,,F,] (F,B,)[B,,B,][B,,B,] | (B,A,)[F,A,][F,C] [F,A,]4 | %10
 (G,C)[C,C][C,C] [C,C]2 [C,C][C,C] | [F,C]6 z2 | (B,F,)[B,,F,][B,,F,] (F,B,)[B,,B,][B,,B,] | %13
 (B,A,)[F,A,][F,C] [F,A,]4 | (G,C)[C,C][C,C] [C,C]2 [C,C][C,B,] | [F,A,]6 z2 |] %16
V:4
 x8 | C,2 x6 | x8 | x8 | x8 | C,2 x6 | x8 | x8 | B,,2 x D,2 x3 | F,2 x6 | C,2 x6 | x8 | %12
 B,,2 x B,,2 x3 | F,2 x6 | C,2 x6 | x8 |] %16

